X: 19091
T: Irish Hallelujah
R: reel
M: 4/4
K: Aminor
|:E2 A2 c2 B2|G2 GA5|cd e2 e2 d2|ed cB A4|
cd e2 ~e2 d2|ed c2 dcBA|GE A2 Bc d2|B2 A6:|

